packages/assets/static/images/icons/gas-pump.svg

<svg width="24" height="24" viewBox="0 0 24 24" xmlns="http://www.w3.org/2000/svg" fill="currentColor" aria-hidden="true"> <path d="M22.2938 6.2658L20.4834 4.45455C20.2721 4.24321 19.9854 4.12447 19.6866 4.12447C19.3877 4.12447 19.101 4.24321 18.8897 4.45455C18.6783 4.66589 18.5596 4.95254 18.5596 5.25143C18.5596 5.55031 18.6783 5.83696 18.8897 6.0483L20.7028 7.85674C20.7376 7.89159 20.7652 7.93296 20.7841 7.97848C20.8029 8.02401 20.8125 8.07279 20.8125 8.12205V15.563C20.8125 15.7122 20.7532 15.8552 20.6477 15.9607C20.5423 16.0662 20.3992 16.1255 20.25 16.1255C20.1008 16.1255 19.9577 16.0662 19.8523 15.9607C19.7468 15.8552 19.6875 15.7122 19.6875 15.563V12.0005C19.6875 11.3043 19.4109 10.6366 18.9187 10.1443C18.4264 9.65205 17.7587 9.37549 17.0625 9.37549H15.9375V5.25049C15.9375 4.5543 15.6609 3.88662 15.1687 3.39433C14.6764 2.90205 14.0087 2.62549 13.3125 2.62549H5.8125C5.11631 2.62549 4.44863 2.90205 3.95634 3.39433C3.46406 3.88662 3.1875 4.5543 3.1875 5.25049V19.1255H2.0625C1.76413 19.1255 1.47798 19.244 1.267 19.455C1.05603 19.666 0.9375 19.9521 0.9375 20.2505C0.9375 20.5489 1.05603 20.835 1.267 21.046C1.47798 21.257 1.76413 21.3755 2.0625 21.3755H17.0625C17.3609 21.3755 17.647 21.257 17.858 21.046C18.069 20.835 18.1875 20.5489 18.1875 20.2505C18.1875 19.9521 18.069 19.666 17.858 19.455C17.647 19.244 17.3609 19.1255 17.0625 19.1255H15.9375V11.6255H17.0625C17.162 11.6255 17.2573 11.665 17.3277 11.7353C17.398 11.8056 17.4375 11.901 17.4375 12.0005V15.563C17.4375 16.3089 17.7338 17.0243 18.2613 17.5517C18.7887 18.0792 19.5041 18.3755 20.25 18.3755C20.9959 18.3755 21.7113 18.0792 22.2387 17.5517C22.7662 17.0243 23.0625 16.3089 23.0625 15.563V8.12205C23.0635 7.77718 22.9961 7.43553 22.8641 7.1169C22.7322 6.79827 22.5383 6.50899 22.2938 6.2658ZM5.4375 19.1255V5.25049C5.4375 5.15103 5.47701 5.05565 5.54733 4.98532C5.61766 4.915 5.71304 4.87549 5.8125 4.87549H13.3125C13.412 4.87549 13.5073 4.915 13.5777 4.98532C13.648 5.05565 13.6875 5.15103 13.6875 5.25049V19.1255H5.4375ZM12.1875 10.5005C12.1875 10.7989 12.069 11.085 11.858 11.296C11.647 11.507 11.3609 11.6255 11.0625 11.6255H8.0625C7.76413 11.6255 7.47798 11.507 7.267 11.296C7.05603 11.085 6.9375 10.7989 6.9375 10.5005C6.9375 10.2021 7.05603 9.91597 7.267 9.70499C7.47798 9.49401 7.76413 9.37549 8.0625 9.37549H11.0625C11.3609 9.37549 11.647 9.49401 11.858 9.70499C12.069 9.91597 12.1875 10.2021 12.1875 10.5005Z"/> </svg>

<svg viewBox="0 0 24 24" xmlns="http://www.w3.org/2000/svg" aria-hidden="true" fill="currentColor"><path d="m22.294 6.266-1.81-1.811a1.127 1.127 0 1 0-1.594 1.593l1.813 1.809a.38.38 0 0 1 .11.265v7.441a.562.562 0 0 1-1.125 0v-3.562a2.625 2.625 0 0 0-2.625-2.626h-1.125V5.25a2.625 2.625 0 0 0-2.626-2.625h-7.5A2.625 2.625 0 0 0 3.188 5.25v13.875H2.064a1.125 1.125 0 1 0 0 2.25h15a1.125 1.125 0 1 0 0-2.25h-1.125v-7.5h1.124a.375.375 0 0 1 .375.376v3.562a2.812 2.812 0 1 0 5.625 0V8.122a2.6 2.6 0 0 0-.768-1.856M5.438 19.126V5.25a.375.375 0 0 1 .375-.375h7.5a.375.375 0 0 1 .374.375v13.875zm6.75-8.625a1.125 1.125 0 0 1-1.126 1.125h-3a1.125 1.125 0 1 1 0-2.25h3a1.125 1.125 0 0 1 1.126 1.125"/></svg>
